X: 21192
T: WHA'LL BE KING BUT CHARLIE
O: Jacobite air.
%R: air, jig
B: W. Hamilton "Universal Tune-Book" Vol. 2 Glasgow 1846 p.119 #2
S: http://s3-eu-west-1.amazonaws.com/itma.dl.printmaterial/book_pdfs/hamiltonvol2web.pdf
Z: 2016 John Chambers <jc:trillian.mit.edu>
M: 6/8
L: 1/8
K: D	% and Bm
% - - - - - - - - - - - - - - - - - - - - - - - - -
A |\
d2c d2e | f2g f2e | d2c d2e | f3 B2c |\
d2e f2b | a2f e2f | d2B cB^A | B3 B2 |]
c |\
d2B BAF | d2B BAF | d2B BAF | A3 A2B/c/ |\
d2e f2b | a2f e2f | d2B cB^A | B3 B2c |
d2B BAF | d2B BAF | fed edc | dcB ABc |\
d2e f2b | a2f He2f | d2B {d}cB^A | B3 B2 |]
% - - - - - - - - - - - - - - - - - - - - - - - - -

%%sep 1 1 500
%%sep 1 1 500

